X:1
T: Bert McCroskie
C: by Bobby Frew, from RSCDS Bk 22
C: Arr. T. Traub 5-2-2000
R: reel
M: 4/4
%
K: A
L: 1/8
E2|"A"A2 AB c2 cB|A2 AE "D"FEEF|"A"A2 AB "F#m"c2 BA|"D"ceaf "E"ecBc|"A"A2 AB "E"c2 cB|
"A"A2 AE "D"FEEF|"A"A2 AB "D"ceaf|"E"ecBc "A"A2 (3efg|| "A"a2 af efce|"E"BcAB "A"c2 AB|
"A"c2 cB "F#m"cefe|"D"afec "E"B2 (3efg|"A"a2 af efce|"E"BcAB "A"c2 cB|"F#m"A2 AB "D"ceaf|"E"ecBc "A"A2 |]
